!!!COA:	Josquin des Prez
!!!CDT:	~1450-1521/08/27
!!!OTL:	Pensif mari
!!!AGN:	Chanson
!!!SCT:	NJE 27.30
!!!SCA:	New Josquin Edition 27.30
!!!voices:	3
**kern	**kern	**kern
*staff3	*staff2	*staff1
*Ivox	*Ivox	*Ivox
*I"Contra	*I"Tenor	*I"Superius
*I'C	*I'T	*I'S
*clefF4	*clefGv2	*clefG2
*k[b-]	*k[b-]	*k[b-]
*M2/1	*M2/1	*M2/1
*met(C|)	*met(C|)	*met(C|)
=1-	=1-	=1-
0GG	0r	0r
=2	=2	=2
1BB-/	0r	0r
1C/	.	.
=3	=3	=3
1AA/	0r	0r
2D\	.	.
[2D\	.	.
=4	=4	=4
2D\]	0r	0r
4C/	.	.
4BB-/	.	.
1AA/	.	.
=5	=5	=5
1GG/	0G	0r
2r	.	.
[2G\	.	.
=6	=6	=6
2G\]	1B-\	0r
1E-\	.	.
.	1c\	.
[2F\	.	.
=7	=7	=7
2F\]	1A/	0r
1D\	.	.
.	2d\	.
[2G\	[2d\	.
=8	=8	=8
2G\]	2d\]	0r
2E\	4c\	.
.	4B-\	.
2F\	1A/	.
4G\	.	.
4A\	.	.
=9	=9	=9
2.B-\	1G/	0d
4A\	.	.
2.G\	1B-\	.
.	.	.
4F\	.	.
=10	=10	=10
1D\	1A/	1f/
1E\	2G/	1g/
.	2B-\	.
=11	=11	=11
1C/	2c\	1e/
.	1A/	.
1D\	.	2a/
.	[2d\	[2a/
=12	=12	=12
2F\	2d\]	2a/]
2G\	2B-\	4g/
.	.	4f/
1A\	2c\	1e/
.	4B-\	.
.	4c\	.
=13	=13	=13
2.B-\	2.d\	1.d/
4A\	4e\	.
2.F\	1f\	.
.	.	2e/
4G\	.	.
=14	=14	=14
2D\	1B-\	2f/
2E\	.	2g/
1F\	1A/	1a/
=15	=15	=15
2G\	1G/	2.b-\
2E\	.	.
.	.	4a/
2F\	[1d\	[1a/
[2D\	.	.
=16	=16	=16
2D\]	0d]	2a/]
4E\	.	4g/
4F\	.	4a/
1G\	.	4b-/
.	.	4a/
.	.	4g/
.	.	4f/
=17	=17	=17
2r	2c\	2e/
2G\	2B-\	1d/
2B-\	1G/	.
2G\	.	2e/
=18	=18	=18
1D\	1d\	2f/
.	.	4g/
.	.	4a/
2G\	2B-\	2b-\
[2F\	[2c\	[2a/
=19	=19	=19
4F\]	4c\]	4a/]
4G\	4B-\	4g/
2E\	2G/	1g/
1D\	1A/	.
.	.	2f#i/
=20	=20	=20
2.GG/	[0G	0g
4AA/	.	.
2BB-/	.	.
[2C/	.	.
=21	=21	=21
4C/]	0G]	0r
4D/	.	.
2.E\	.	.
4F\	.	.
2G\	.	.
=22	=22	=22
2F\	0r	1a/
4E\	.	.
4F\	.	.
1G\	.	1b-\
=23	=23	=23
1D\	1d\	1a/
1r	1e-\	1g/
=24	=24	=24
1D\	1d\	1r
1A\	1c\	1cc\
=25	=25	=25
1G\	1r	1b-\
2A\	1c\	1a/
2F\	.	.
=26	=26	=26
2G\	1B-\	2g/
4E\	.	1g/
4G\	.	.
1D\	1A/	.
.	.	2f#i/
=27	=27	=27
1E\	1G/	2.g/
.	.	4f/
1C/	1c\	4e/
.	.	4d/
.	.	2e/
=28	=28	=28
1G\	2B-\	2d/
.	4A/	4c/
.	4G/	4B-/
1D\	2.F/	2.A/
.	4G/	4B-/
=29	=29	=29
2r	2A/	2c/
2G\	2B-\	2d/
2E\	2c\	2e/
2D\	[2d\	[2f/
=30	=30	=30
2F\	2d\]	2f/]
2E\	2e\	2g/
2D\	2f\	2f/
[2C/	[2g\	[2e/
=31	=31	=31
4C/]	4g\]	4e/]
4D/	4f\	4d/
2BB-/	2d\	1d/
2AA/	1e\	.
2A\	.	2c#i/
=32	=32	=32
2B-\	1d\	1d/
2G\	.	.
2A\	2c\	2r
2G\	2d\	[2g/
=33	=33	=33
2E-\	2e-i\	2g/]
2F\	2.d\	2a/
2G\	.	2b-\
.	4B-\	.
4F\	2c\	4a/
4E-\	.	4g/
=34	=34	=34
0D;	2d;\	0f;
.	4c\	.
.	4B-\	.
.	1A/	.
=35	=35	=35
1.G\	1.G/	0r
4F\	2A/	.
4E\	.	.
=36	=36	=36
1D\	1B-\	1d/
1C/	1c\	1e/
=37	=37	=37
2BB-/	1d\	1f/
2D\	.	.
2C/	1e-\	1g/
2E-i\	.	.
=38	=38	=38
2F\	1d\	1a/
4D\	.	.
4F\	.	.
1E-\	1G/	1b-\
=39	=39	=39
1F\	1r	1a/
1G\	1B-\	1d/
=40	=40	=40
1D\	2A/	1r
.	1B-\	.
1E-i\	.	1b-\
.	2G/	.
=41	=41	=41
2F\	2F/	2a/
2.E-i\	1G/	1b-\
4F\	.	.
2G\	2B-\	2g/
=42	=42	=42
2D\	2A/	2f/
2.E-i\	2G/	1g/
.	2B-\	.
4F\	.	.
2G\	2c\	2b-\
=43	=43	=43
2r	2d\	2a/
2C/	2e-i\	2g/
2G\	2d\	2b-\
2E-i\	2e-i\	2cc\
=44	=44	=44
2D\	2f\	2dd\
2.C/	2.g\	2.ee-i\
4D\	4f\	4dd\
2E-i\	4e-i\	4cc\
.	4d\	4b-\
=45	=45	=45
2F\	2c\	2a/
1G\	2B-\	1b-\
.	1c\	.
2F\	.	2a/
=46	=46	=46
2.G\	[0B-	2.b-\
4F\	.	4a/
2D\	.	2f/
2E-i\	.	2g/
=47	=47	=47
2D\	0B-]	2f/
2.BB-/	.	2.d/
4C/	.	4e/
2D\	.	2f/
=48	=48	=48
2E-i\	1B-\	2B-/
2BB-/	.	2d/
1F\	1A/	1c/
=49	=49	=49
2r	0B-	0B-
1BB-/	.	.
2E-\	.	.
=50	=50	=50
2F\	2A/	0r
1G\	2G/	.
.	1A/	.
2F#i\	.	.
=51	=51	=51
0G	1.G/	0b-
.	2E/	.
=52	=52	=52
0r	2F/	2a/
.	1G/	2g/
.	.	1a/
.	2F#i/	.
=53	=53	=53
0B-	0G	2g/
.	.	4f/
.	.	4e/
.	.	2.d/
.	.	4e/
=54	=54	=54
2A\	0r	2f/
2G\	.	1g/
1A\	.	.
.	.	2f#i/
=55	=55	=55
0G	1d\	1g/
.	1e\	1r
=56	=56	=56
1F\	1f\	1a/
1G\	1d\	1b-\
=57	=57	=57
1A\	1c\	1cc\
1D\	1d\	1a/
=58	=58	=58
2r	1e\	1g/
2G\	.	.
2F\	1d\	2a/
[2G\	.	[2b-\
=59	=59	=59
2G\]	1G/	2b-\]
4F\	.	4a/
4E\	.	4g/
2D\	2B-\	2f/
[2F\	2A/	[2a/
=60	=60	=60
2F\]	1d\	2a/]
4E\	.	4g/
4D\	.	4f/
1A\	1c\	1e/
=61	=61	=61
2.D\	[0d	2.f/
4E\	.	4g/
2F\	.	2a/
[2G\	.	[2b-\
=62	=62	=62
4G\]	0d]	4b-\]
4A\	.	4cc\
2.B-\	.	2.dd\
4A\	.	4cc\
2F\	.	2a/
=63	=63	=63
1E-\	1G/	2b-\
.	.	4a/
.	.	4g/
1D\	1A/	2.f#i/
.	.	4e/
=64	=64	=64
0GGl	0Gl	0gl
==	==	==
*-	*-	*-
!!!RDF**kern: l=long note in original notation
!!!RDF**kern: i=editorial accidental
!!!RDF**kern: V=start of tuplet marker
!!!RDF**kern: Z=end of tuplet marker
!!!ENC:	Megan K. Eagen 05/28/3012
!!!END:	2012/06/04/
!!!EED:	Jesse Rodin
!!!EEV:	2012/06/21/
!!attribution-level@Jos: 5 (doubtful)
!!!ONB:	Translated from MusicXML and edited on 2012/06/21/ by Craig Sapp
!!muse2ps: C^@{COA}?\n@{SCT}^i2I150v85,85,150Q16
